dist/svg/static/results-list-small.svg

<svg xmlns="http://www.w3.org/2000/svg" width="24" height="24" viewBox="0 0 24 24"><g fill="none" stroke="currentColor"><path d="M5 12.5h3M2 12.5h2M5 9.5h5M2 9.5h2M5 6.5h9M2 6.5h2M5 3.5h9M2 3.5h2M11.52 12.44a3.87 3.87 0 0 1 4-4 4.09 4.09 0 0 1 4 4c0 2.2-4.02 8.06-4.02 8.06s-3.98-5.87-3.98-8.06z"/></g></svg>

<?xml version="1.0" encoding="UTF-8" standalone="no"?>
<svg width="24px" height="24px" viewBox="0 0 24 24" version="1.1" xmlns="http://www.w3.org/2000/svg" xmlns:xlink="http://www.w3.org/1999/xlink">
    <!-- Generator: sketchtool 46.2 (44496) - http://www.bohemiancoding.com/sketch -->
    <title>results-list-small</title>
    <desc>Created with sketchtool.</desc>
    <defs></defs>
    <g id="icons-published" stroke="none" stroke-width="1" fill="none" fill-rule="evenodd">
        <g id="briefing" transform="translate(-2948.000000, -1434.000000)"></g>
        <g id="results-list-small" stroke="#000000">
            <path d="M5,12.5 L8,12.5 L5,12.5 Z M2,12.5 L4,12.5 L2,12.5 Z M5,9.5 L10,9.5 L5,9.5 Z M2,9.5 L4,9.5 L2,9.5 Z M5,6.5 L14,6.5 L5,6.5 Z M2,6.5 L4,6.5 L2,6.5 Z M5,3.5 L14,3.5 L5,3.5 Z M2,3.5 L4,3.5 L2,3.5 Z M11.5,12.4 C11.4,10.3 13.1,8.5 15.2,8.4 C15.3,8.4 15.4,8.4 15.5,8.4 C17.7,8.4 19.5,10.2 19.5,12.4 C19.5,14.6 15.5,20.5 15.5,20.5 C15.5,20.5 11.5,14.6 11.5,12.4 Z" id="Shape"></path>
        </g>
    </g>
</svg>
